X:195
T: Alter Ostergesang
N: A0552B
O: Europa, Mitteleuropa, Deutschland
N: Vorletzter Takt eigentlich 2 Takte 2/1 3/1.
N: H Finck 1536, vor 1596 notiert.
R: Romanze, Ballade, Lied, religioeses Lied
M: 4/1
L: 1/2
K: G
 |  | d4c2d2 | =f4g4d4
d2c2d2_B2 | A2_B2G2z
G | c3c_B2G2 | _B2c2d4 |
d2B2d2B2 | A2_B2G2A2 |
=F2GBA2BG2^F | G8

@@@ Tune index: 508
